X: 24567
T: Lunchtime Boredom
R: reel
M: 4/4
K: Edorian
|:E2 G2 GGFG|EFGA B2 (3Bcd|c2 AG EAAG|Aede cAGF|
E2 G2 GGFG|EFGA B2 (3Bcd|1 c2 AG EA-Ac-|ccAG EAGF:|2 c2 AG EA-Ac-|ccAG (3Bcd ef||
|:g2 ed Bg-gg-|gged Bcdf|1 ecAG EAAE|ABcA (3Bcd ea:|2 ecAG Eede|ceBc ABca||
ecAG E2 AE|ABcd ecAG|F G3 GGFG|EFGA B2 (3Bcd|c2 AG EAAG|Aede cAGF||

